X: 29465
T: Night Ride To Armagh
R: reel
M: 4/4
K: Edorian
ED|EEGE AB z A-|AGED E2 EF|GEEE AGED|B2 B2 AGED|
EEGE AB z A-|AGED E2 EF|GEEE AGED|E6:|
ed|BEEE BEE d|z eBEE ddc|AEEE ABce-|edBA d2 dc|
BEEE BEE d|z eBEE d2 d-|dBAF B2 AF|E2 ED E2:|

